src/assets/icons/general/mount.svg

<svg width="24" height="24" viewBox="0 0 24 24" xmlns="http://www.w3.org/2000/svg">
    <path
        d="M15.9338 3.61508C16.2225 3.56633 16.5225 3.63383 16.7288 3.80258C19.8825 6.00383 21.6 8.91383 21.6 11.9663C21.6 15.0826 19.8825 17.9963 16.7288 20.1976C16.5488 20.3476 16.29 20.4188 16.0313 20.3963C15.7688 20.3738 15.525 20.2613 15.3413 20.0776L8.46376 13.2263C8.25376 13.0201 8.13751 12.7388 8.10376 12.4426C8.10376 12.1501 8.25376 11.8688 8.46001 11.6588C8.67001 11.4526 8.95126 11.3326 9.24376 11.3326C9.54001 11.3326 9.82126 11.4488 10.0275 11.6551L16.2188 17.8201C18.2663 16.1438 19.38 14.1001 19.38 11.9663C19.38 9.65633 17.9963 7.38383 15.4838 5.61758C15.2438 5.44883 15.0788 5.19008 15.03 4.90133C14.9775 4.61258 15.045 4.31258 15.2175 4.07258C15.3863 3.83258 15.645 3.66758 15.9338 3.61883V3.61508ZM8.20876 20.3851C7.92001 20.4338 7.62376 20.3663 7.38001 20.1976C4.26376 17.9963 2.54251 15.0826 2.54251 11.9663C2.54251 8.91383 4.26001 6.00383 7.38001 3.80258C7.59376 3.65258 7.85251 3.58133 8.11501 3.60383C8.37376 3.62633 8.61751 3.73883 8.80126 3.92258L15.6788 10.7738C15.8888 10.9801 16.005 11.2613 16.005 11.5576C16.0088 11.8163 15.8925 12.1313 15.6825 12.3413C15.4763 12.5476 15.195 12.6676 14.8988 12.6676C14.6063 12.6676 14.2913 12.5513 14.115 12.3451L7.92376 6.17633C5.87626 7.87133 4.76251 9.89633 4.76251 11.9663C4.76251 14.3438 6.14626 16.6163 8.62876 18.3826C8.90251 18.5551 9.06376 18.8101 9.11626 19.1026C9.16501 19.3913 9.09751 19.6913 8.92876 19.9313C8.76001 20.1713 8.50126 20.3326 8.20876 20.3851Z" />
</svg>

<svg xmlns="http://www.w3.org/2000/svg" width="24" height="24" viewBox="0 0 24 24"><path d="M15.934 3.615c.289-.049.589.019.795.188 3.154 2.2 4.871 5.11 4.871 8.163 0 3.117-1.718 6.03-4.871 8.232a.97.97 0 0 1-.698.198 1.1 1.1 0 0 1-.69-.318l-6.877-6.852a1.3 1.3 0 0 1-.36-.783c0-.293.15-.574.356-.784a1.106 1.106 0 0 1 1.567-.004l6.192 6.165c2.047-1.676 3.161-3.72 3.161-5.854 0-2.31-1.384-4.582-3.896-6.348a1.104 1.104 0 0 1-.267-1.545c.17-.24.428-.405.717-.454zm-7.725 16.77a1.13 1.13 0 0 1-.829-.187c-3.116-2.202-4.837-5.115-4.837-8.232 0-3.052 1.717-5.962 4.837-8.163a1.11 1.11 0 0 1 1.421.12l6.878 6.85c.21.207.326.488.326.785.004.258-.112.573-.322.783a1.1 1.1 0 0 1-.784.327c-.293 0-.608-.117-.784-.323L7.924 6.176c-2.048 1.695-3.161 3.72-3.161 5.79 0 2.378 1.383 4.65 3.866 6.417.274.172.435.427.487.72.049.288-.018.588-.187.828s-.428.402-.72.454"/></svg>
